TMExperienceViews/assets/list.clipboard.fill.svg

<?xml version="1.0" encoding="UTF-8"?>
<!--Generator: Apple Native CoreSVG 232.5-->
<!DOCTYPE svg
PUBLIC "-//W3C//DTD SVG 1.1//EN"
       "http://www.w3.org/Graphics/SVG/1.1/DTD/svg11.dtd">
<svg version="1.1" xmlns="http://www.w3.org/2000/svg" xmlns:xlink="http://www.w3.org/1999/xlink" width="25.0049" height="40.5908">
 <g>
  <rect height="40.5908" opacity="0" width="25.0049" x="0" y="0"/>
  <path d="M4.7168 6.15234L4.7168 7.69043C4.7168 9.53613 6.00586 10.8398 7.79297 10.8398L16.8457 10.8398C18.6328 10.8398 19.9219 9.53613 19.9219 7.69043L19.9219 6.15234C19.9219 6.02233 19.9156 5.89504 19.9018 5.77148L20.0977 5.77148C23.1299 5.77148 24.6387 7.29492 24.6387 10.3711L24.6387 32.5928C24.6387 35.6689 23.1299 37.1924 20.0977 37.1924L4.54102 37.1924C1.50879 37.1924 0 35.6689 0 32.5928L0 10.3711C0 7.29492 1.50879 5.77148 4.54102 5.77148L4.7369 5.77148C4.72309 5.89504 4.7168 6.02233 4.7168 6.15234ZM5.6543 27.4805C5.12695 27.4805 4.70215 27.9053 4.70215 28.418C4.70215 28.9307 5.1416 29.3701 5.6543 29.3701L12.3633 29.3701C12.876 29.3701 13.3008 28.9307 13.3008 28.418C13.3008 27.9053 12.8906 27.4805 12.3633 27.4805ZM5.6543 21.8262C5.12695 21.8262 4.70215 22.2363 4.70215 22.7637C4.70215 23.291 5.12695 23.7158 5.6543 23.7158L18.9844 23.7158C19.5117 23.7158 19.9365 23.291 19.9365 22.7637C19.9365 22.2363 19.5117 21.8262 18.9844 21.8262ZM5.6543 16.4502C5.1416 16.4502 4.70215 16.8896 4.70215 17.417C4.70215 17.9297 5.1416 18.3545 5.6543 18.3545L18.9844 18.3545C19.4971 18.3545 19.9365 17.9297 19.9365 17.417C19.9365 16.8896 19.4971 16.4502 18.9844 16.4502Z" fill="#044064"/>
  <path d="M15.498 4.70215L16.8457 4.70215C17.6953 4.70215 18.208 5.24414 18.208 6.15234L18.208 7.69043C18.208 8.59863 17.6953 9.14062 16.8457 9.14062L7.79297 9.14062C6.94336 9.14062 6.43066 8.59863 6.43066 7.69043L6.43066 6.15234C6.43066 5.24414 6.94336 4.70215 7.79297 4.70215L9.14062 4.70215C9.24316 3.04688 10.6201 1.69922 12.3193 1.69922C14.0186 1.69922 15.3955 3.04688 15.498 4.70215ZM11.0449 4.81934C11.0449 5.50781 11.6162 6.09375 12.3193 6.09375C13.0225 6.09375 13.5938 5.50781 13.5938 4.81934C13.5938 4.10156 13.0225 3.53027 12.3193 3.53027C11.6162 3.53027 11.0449 4.10156 11.0449 4.81934Z" fill="#044064"/>
 </g>
</svg>

<svg xmlns="http://www.w3.org/2000/svg" viewBox="0 0 25 41" width="25" height="41" aria-hidden="true">
  <path d="M4.717 6.152v1.538c0 1.846 1.289 3.15 3.076 3.15h9.053c1.787 0 3.076-1.304 3.076-3.15V6.152c0-.13-.006-.257-.02-.381h.196c3.032 0 4.541 1.524 4.541 4.6v22.222c0 3.076-1.509 4.6-4.541 4.6H4.541c-3.032 0-4.541-1.524-4.541-4.6V10.371c0-3.076 1.509-4.524 4.541-4.524h.196a1.37 1.37 0 0 1-.018-.395ZM5.654 27.48a.907.907 0 0 1-.907-.907v-.563a.907.907 0 0 1 .907-.907h6.709a.907.907 0 0 1 .907.907v.563a.907.907 0 0 1-.907.907H5.654Zm0-5.654a.907.907 0 0 1-.907-.938v-.563a.907.907 0 0 1 .907-.906h13.33a.907.907 0 0 1 .907.906v.563a.907.907 0 0 1-.907.938H5.654Zm0-5.376a.907.907 0 0 1-.907-.967v-.563a.907.907 0 0 1 .907-.906h13.33a.907.907 0 0 1 .907.906v.563a.907.907 0 0 1-.907.967H5.654Z" fill="#024165"/>
  <path d="M15.498 4.702h1.348c.85 0 1.362.542 1.362 1.45v1.538c0 .908-.512 1.451-1.362 1.451H7.793c-.85 0-1.362-.543-1.362-1.451V6.152c0-.908.513-1.45 1.362-1.45h1.348A2.62 2.62 0 0 1 12.319 1.699 2.62 2.62 0 0 1 15.498 4.702Zm-4.178-1.883a1.29 1.29 0 1 0 0 2.563 1.29 1.29 0 0 0 0-2.563Z" fill="#024165"/>
</svg>
